X: 84
T:Give Me Your Hand
T:Tabhair Do'm Do Lámh
T:White, Orange, And Green
F:http://blackrosetheband.googlepages.com/ABCTUNES.ABC May 2009
M:3/4
L:1/8
R:waltz
K:Gmaj
D2|"C"E2 G2 G2| "G"G4 D2|"C"E2 G2 G>A| "G"G4 D2|"C"E2 G2 G2| "G"G2 A2 B2 |"D"B2 e2 de| "Em"B4 AG|
"Am"A2 A2 ed| "Em"B2 B2 dB|"Am"A2 AB AG| "D"E4 D2|"C"E2 G2 G2| "G"G4 D2| "C"E2 G2 G2| "G"G4 D2|
"C"E2 G2 G2| "G"G2 A2 B2|"D"de dB AB| "G"G4 D2|"C"E2 G2 G2| "G"G2 A2 B2| "D"B2 e2 d2| "Em"B4 AG|
"Am"A2 A2 ed| "Em"B2 B2 dB|"Am"A2 AB cd| "C"e4 dB|"G"d2 d2 e2| "Em"g4 ed |"C"e2 e2 (3geg| "D"a4 de|
"G"g2 g2 de| "Em"g2 g2 de|"C"g2 g2 (3aga| b6| "G"b2 b2 b2| b4 ag|"D"a2 a g ab| a4 gf|
"C"e3 f2 (3gfe| "G"d2 d2 g2|"Em"B3 d cB| "D"A4 (3cBA|"G"G2 GA Bd|"F" =f4 ed|"C"e2 e2 g2| "Am"e4 dB|
"G"d2 d2 g2| "Em"B2 B2 dB|"D"A2 AB (3cBA| "G"G6 ||
T:Last Time
D2|"C"E2 G2 G2 | "G"G4 D2 | "C"E2 c2 A2 | "G" B6||

